X:1
T: The Red Rose
C:
R:Jig
Q:180
K:G
M:6/8
L:1/16
dB|G2A2G2 G2B2d2|g2f2g2 e4d2|e2g2e2 d2B2G2|A2B2A2 A4dB|
G2A2G2 G2B2d2|g2f2g2 e4d2|e2g2e2 d2B2G2|1A2G2G2 G4dB:|2A2G2G2 G4d2|
g2a2b2 b2a2g2|f2a2g2 f2e2d2|e2g2e2 d2B2G2|A2B2A2 A4d2|
g2a2b2 b2a2g2|g2f2g2 e4d2|e2g2e2 d2B2G2|1A2G2G2 G4d2:|2A2G2G2 G4||
